X:1
T:Title
%%score 1 ( 2 3 )
L:1/8
Q:1/4=100
M:4/4
K:Ab
V:1 treble nm="Choir Aahs, Treble"
V:2 bass nm="Choir Aahs, Bass"
V:3 bass 
V:1
 z4 z2 [CE]2 | [Ec]2 [EA]2 [DB]2 [DG]2 | [CA]6 [CE]2 | [Ed]2 [EB]2 [Ec]2 [EA]2 | [EB]6 E2 | %5
 [Ee]2 [Ec]2 [Ed]2 [EB]2 | [=Ec]4 [FB]2 [_CA]2 | [CA]4 [DB]4 | [CA]6 [ce]2 | %9
 [ce]2 [Ac]2 [df]2 [ce]2 | [Bd]6 [Bd]2 | [Bd]2 [GB]2 [ce]2 [Bd]2 | [Ac]6 [CE]2 | %13
 [EA]2 [EA]2 [=DB]2 [Ec]2 | [Fd]2 [Af]2 [Ae]2 [Ad]2 | [Ac]4 [GB]4 | [EA]6 z2 |] %17
V:2
 z4 z2 [A,,A,]2 | [A,,A,]2 [C,A,]2 [E,G,]2 [E,B,]2 | A,4 E,2 A,2 | [E,G,]2 [E,G,]2 A,2 [C,A,]2 | %4
w: 1.~The~|Lord~ in vites~ you~|in,~ * Oh,~|come~ to~ Him,~ I~|
 [E,G,]6 [E,G,]2 | [A,C]2 A,2 [E,G,]2 [=D,G,]2 | [C,G,]4 [D,F,]2 [=D,F,]2 | E,4 [E,G,]4 | %8
w: pray;~ He'll~|save~ your~ soul~ from~|sin~ * The~|Bi ble~|
 [A,,A,]6 z2 | z4 z2 [A,E]2 | [E,E]2 [E,E]2 [E,E]2 z2 | z4 z2 [E,E]2 | [A,E]2 [A,E]2 [A,E]2 A,2 | %13
w: way.~|||||
 [A,C]2 [_G,C]2 [F,C]2 [E,A,]2 | [D,A,]2 [B,,A,]2 [C,A,]2 [D,F]2 | [E,E]4 [E,D]4 | [A,,C]6 z2 |] %17
w: ||||
V:3
 x8 | x8 | A,,6 z2 | x8 | x8 | x8 | x8 | x8 | x8 | x8 | x8 | x8 | x8 | x8 | x8 | x8 | x8 |] %17

